src/bright/hiso font bright_260E.svg

<svg xmlns="http://www.w3.org/2000/svg" width="117" height="126" viewBox="0 0 117 126"><path fill="#000101" d="M44.668 63.12l6.332-3.169v10.359l-6.332 3.159v-10.349zm-9.668 15.191l6.668-3.341v-10.35l-6.668 3.331v10.36zm0 12.04l6.668-3.341v-8.68l-6.668 3.34v8.681zm9.668-4.841l6.332-3.159v-8.68l-6.332 3.16v8.679zm-9.668 18.551l6.668-3.33v-10.37l-6.668 3.339v10.361zm9.668-4.831l6.332-3.169v-10.361l-6.332 3.161v10.369zm12.332-42.279v36.109l16-8v-36.109l-16 8zm42 10.549v13.5l-71.79 35.9-.21.1-27-13.5v-54l54-27 27 13.5v31.5l9-4.5 9 4.5zm-3 1.484l-18 9.016v-37.15l-48 24v47.3l66-33v-10.166z"/></svg>

<svg xmlns="http://www.w3.org/2000/svg" width="117" height="126"><path fill="#000101" d="M44.668 63.12L51 59.951V70.31l-6.332 3.159V63.12zM35 78.311l6.668-3.341V64.62L35 67.951v10.36zm0 12.04l6.668-3.341v-8.68L35 81.67v8.681zm9.668-4.841L51 82.351v-8.68l-6.332 3.16v8.679zM35 104.061l6.668-3.33v-10.37L35 93.7v10.361zm9.668-4.831L51 96.061V85.7l-6.332 3.161V99.23zM57 56.951V93.06l16-8V48.951l-16 8zM99 67.5V81l-71.79 35.9-.21.1-27-13.5v-54l54-27L81 36v31.5l9-4.5 9 4.5zm-3 1.484L78 78V40.85l-48 24v47.3l66-33V68.984z"/></svg>
